build/img/cloud-logo-black.svg

<svg width="100" height="70" viewBox="0 0 100 70" fill="none" xmlns="http://www.w3.org/2000/svg">
<g clip-path="url(#clip0)">
<path fill-rule="evenodd" clip-rule="evenodd" d="M82.8104 27.2856H82.8105H82.8251C86.7651 27.2652 90.5914 28.5994 93.6574 31.0628C96.7233 33.5262 98.841 36.9678 99.6524 40.8058C100.464 44.6439 99.9193 48.6431 98.1108 52.1277C96.3023 55.6122 93.3408 58.3685 89.7267 59.9306C88.1982 60.5048 86.5842 60.8216 84.9511 60.8679C84.2522 60.8679 83.7492 60.7631 83.641 60.5244C83.4802 60.178 84.0358 59.8432 84.5388 59.5958C88.156 57.8095 88.8737 57.325 89.9394 56.6056L89.9399 56.6054C90.194 56.4338 90.468 56.2489 90.8058 56.0297C94.5227 53.6834 97.0903 48.9383 97.0903 44.3242C97.0772 40.5665 95.5662 36.9676 92.8892 34.3182C90.2123 31.6687 86.5883 30.1853 82.8134 30.1938C82.0682 30.1943 81.3242 30.2517 80.5879 30.3656C80.3779 30.3982 80.1633 30.3848 79.959 30.3264C79.7547 30.268 79.5657 30.166 79.4051 30.0274C79.2444 29.8888 79.1161 29.7171 79.029 29.5241C78.9418 29.3311 78.898 29.1216 78.9005 28.91V28.7383C78.8858 26.2985 78.2319 23.9049 77.0034 21.7937C75.7749 19.6825 74.0144 17.927 71.8956 16.7005C69.7769 15.474 67.3734 14.8189 64.9226 14.8001C62.4717 14.7813 60.0583 15.3994 57.9209 16.5932C57.7302 16.7003 57.5178 16.7633 57.2994 16.7778C57.0809 16.7922 56.862 16.7576 56.6588 16.6766C56.4556 16.5956 56.2733 16.4702 56.1252 16.3096C55.9772 16.1491 55.8673 15.9575 55.8036 15.749C54.6479 12.0391 52.3327 8.79337 49.1951 6.48429C46.0575 4.17521 42.2614 2.92339 38.3595 2.9111C28.3259 2.9111 20.1376 11.0097 20.1376 20.9598C20.1401 21.6604 20.1831 22.3602 20.2662 23.0558C20.2893 23.2521 20.2719 23.451 20.2152 23.6404C20.1585 23.8298 20.0636 24.0058 19.9364 24.1575C19.8091 24.3092 19.6522 24.4335 19.4751 24.5229C19.298 24.6123 19.1045 24.6648 18.9064 24.6773C14.5868 24.9456 10.5315 26.8398 7.56346 29.9754C4.59541 33.1111 2.93692 37.2533 2.92453 41.5616C2.91068 44.2341 3.54468 46.8704 4.77275 49.2469C5.76412 51.043 7.73225 53.7416 11.4638 56.3616C13.3188 57.6036 15.2752 58.6884 17.3126 59.6045C18.0963 59.9626 18.3946 60.245 18.2747 60.5157C17.9764 61.194 14.4671 60.7369 12.4903 59.9335C8.79471 58.4754 5.62633 55.9426 3.39833 52.6654C1.17032 49.3882 -0.0138931 45.5187 0.000122993 41.5616C0.0186546 36.7723 1.77246 32.1504 4.9394 28.545C8.10634 24.9395 12.4738 22.5925 17.2395 21.9351C17.2132 21.6061 17.2132 21.2801 17.2132 20.9598C17.2132 9.40283 26.6999 1.64897e-05 38.3595 1.64897e-05C42.6006 -0.00526763 46.7452 1.25953 50.2546 3.63001C53.764 6.00049 56.4759 9.36703 58.0378 13.292C60.1819 12.3694 62.4925 11.8919 64.8283 11.8889C73.6191 11.8889 81.0295 18.6543 81.7665 27.3177C82.1144 27.2856 82.4653 27.2856 82.8104 27.2856ZM20.7068 68.326V66.0816H21.2449L22.9557 68.326H24.2716L22.1748 65.6798L24.1254 63.188H22.8094L21.3472 65.185H20.7068V63.188H19.5546V68.326H20.7068ZM26.9277 68.4513C25.6702 68.4513 24.3835 67.6187 24.3835 65.7673C24.3835 63.9158 25.6702 63.0716 26.9277 63.0716C28.1852 63.0716 29.4719 63.9129 29.4719 65.7673C29.4719 67.6217 28.1852 68.4513 26.9277 68.4513ZM28.2905 65.7673C28.2905 64.5825 27.6471 64.0003 26.9277 64.0003C26.2083 64.0003 25.5649 64.5825 25.5649 65.7673C25.5649 66.9521 26.2083 67.5139 26.9277 67.5139C27.6471 67.5139 28.2905 66.955 28.2905 65.7673ZM31.618 66.1398H33.9225V68.326H35.063V63.188H33.9225V65.2403H31.618V63.188H30.4746V68.326H31.618V66.1398ZM40.6505 69.5401V68.3262H36.878V69.5401H35.8428V67.4383H36.1352C36.7201 67.4383 37.0125 66.6931 37.0944 64.8183L37.1704 63.1852H40.9341V67.4354H41.7033V69.5372L40.6505 69.5401ZM38.1647 64.0847L38.1179 64.958C38.039 66.3146 37.8489 67.0482 37.4453 67.4412H39.7848V64.0847H38.1647ZM46.146 64.7628V68.326H47.2894V63.188H46.146L43.6895 66.7686V63.188H42.5461V68.326H43.6895L46.146 64.7628ZM53.7419 69.5399H52.7038V68.326H48.5774V63.188H49.715V67.4294H51.8264V63.188H52.9699V67.4294H53.739L53.7419 69.5399ZM58.1956 64.7628V68.326H59.3391V63.188H58.1956L55.7391 66.7686V63.188H54.5957V68.326H55.7391L58.1956 64.7628ZM62.7836 68.4513C61.5261 68.4513 60.2393 67.6187 60.2393 65.7673C60.2393 63.9158 61.5261 63.0716 62.7836 63.0716C64.0411 63.0716 65.3278 63.9129 65.3278 65.7673C65.3278 67.6217 64.044 68.4513 62.7836 68.4513ZM64.1463 65.7673C64.1463 64.5825 63.503 64.0003 62.7836 64.0003C62.0642 64.0003 61.4208 64.5825 61.4208 65.7673C61.4208 66.9521 62.0642 67.5139 62.7836 67.5139C63.503 67.5139 64.1463 66.955 64.1463 65.7673ZM67.4608 66.1398H69.7623V68.326H70.9057V63.188H69.7623V65.2403H67.4608V63.188H66.3173V68.326H67.4608V66.1398ZM74.4572 67.5052C75.0421 67.5052 75.5217 67.2665 75.7234 66.7891H76.8464C76.6978 67.2858 76.3871 67.7189 75.9633 68.02C75.5396 68.3211 75.0271 68.4729 74.5069 68.4513C72.8458 68.4513 71.8954 67.1908 71.8954 65.7178C71.8954 64.172 72.9628 63.0716 74.4309 63.0716C76.013 63.0716 77.0014 64.3525 76.9078 66.0817H73.0564C73.1324 67.0365 73.805 67.5052 74.4572 67.5052ZM75.7439 65.252C75.7435 65.0809 75.7091 64.9116 75.6426 64.7538C75.5761 64.596 75.4789 64.4529 75.3566 64.3327C75.2342 64.2125 75.0891 64.1177 74.9298 64.0536C74.7704 63.9896 74.5998 63.9576 74.4279 63.9595C74.0744 63.9517 73.732 64.083 73.4752 64.325C73.2184 64.567 73.0679 64.9002 73.0564 65.252H75.7439ZM79.6564 63.2646C79.3859 63.4059 79.1583 63.6167 78.9973 63.8751V63.1881H77.8568V70.0001H78.9973V67.6479C79.1583 67.9063 79.3859 68.1171 79.6564 68.2584C79.9269 68.3997 80.2305 68.4663 80.5356 68.4514C81.7931 68.4514 82.7523 67.3976 82.7523 65.7557C82.7523 64.1138 81.7931 63.0717 80.5356 63.0717C80.2305 63.0567 79.9269 63.1233 79.6564 63.2646ZM80.2841 64.009C81.0824 64.009 81.562 64.6786 81.562 65.7557C81.562 66.8474 81.0824 67.5373 80.2841 67.5256C79.5354 67.5256 78.9505 66.9201 78.9505 65.7557C78.9505 64.5913 79.5354 64.009 80.2841 64.009ZM21.0733 49.5293C23.0473 49.5293 24.7288 50.8247 24.7288 53.404C24.7288 55.9832 23.0473 57.267 21.0733 57.267C19.0993 57.267 17.4149 55.9832 17.4149 53.404C17.4149 50.8247 19.0964 49.5293 21.0733 49.5293ZM21.0733 55.235C21.7021 55.235 22.1846 54.7693 22.1846 53.404C22.1846 52.0387 21.7021 51.5612 21.0733 51.5612C20.4446 51.5612 19.962 52.0387 19.962 53.404C19.962 54.7693 20.4416 55.235 21.0733 55.235ZM25.3352 52.3996V52.6267C25.3352 55.8929 26.9056 57.267 28.7743 57.2553C30.5144 57.2553 32.3421 56.056 32.3421 53.6514C32.3421 51.4186 30.8858 50.2542 29.2686 50.2542C28.441 50.2542 27.5139 50.5249 27.0928 51.3604C27.1805 49.9805 27.9584 49.6108 28.9352 49.4886L31.5905 49.1974V46.9559L29.4294 47.1597C26.2126 47.4741 25.4083 49.7127 25.3352 52.3996ZM28.7539 52.094C29.3095 52.094 29.83 52.4491 29.83 53.663C29.83 54.81 29.3007 55.235 28.7802 55.235C28.2596 55.235 27.7683 54.7431 27.7683 53.663C27.7683 52.4637 28.1982 52.094 28.7539 52.094ZM32.7527 55.0982H32.975C33.4312 55.0982 33.8757 54.6324 33.9868 52.2046L34.1126 49.7476H40.0638V57.0894H37.5956V51.7388H36.3848L36.2737 53.4593C36.1363 55.5349 35.3584 57.0894 33.2206 57.0894H32.7527V55.0982ZM44.1935 51.3011C44.3246 51.2609 44.4625 51.2473 44.5989 51.2613C45.1311 51.2613 45.5873 51.4244 45.5902 52.2453V52.4491C42.7945 52.6412 41.2036 53.3631 41.2036 55.069C41.2036 56.379 42.2769 57.2669 43.5753 57.2669C44.5141 57.2669 45.3387 56.9409 45.833 56.1345V57.0893H48.1316C48.0337 56.1095 47.9927 55.1249 48.0087 54.1404V52.7343C48.0321 50.2774 46.6752 49.4856 44.7714 49.4856C42.5752 49.4856 41.461 50.8101 41.3499 52.2045H43.4759C43.485 52.0683 43.5216 51.9353 43.5835 51.8135C43.6454 51.6917 43.7313 51.5835 43.8361 51.4954C43.9409 51.4074 44.0625 51.3413 44.1935 51.3011ZM44.4878 55.4242C43.9128 55.4242 43.6752 55.074 43.6719 54.7613C43.6776 54.1267 44.3703 53.8809 45.6751 53.7852V54.0036C45.6751 55.1331 45.1311 55.4242 44.4878 55.4242ZM53.2238 54.6732C52.6816 54.8015 52.126 54.866 51.5686 54.8653C50.0859 54.8653 49.1852 54.0997 49.1852 52.4637V49.7476H51.6563V52.0386C51.6563 52.8712 51.9137 53.008 52.6185 53.008C52.8231 53.0099 53.027 52.9825 53.2238 52.9265V49.7476H55.6949V57.0894H53.2238V54.6732ZM59.6306 49.7476H57.1595L57.1624 57.0894H59.6336V54.3326H61.5724V57.0894H64.0436V49.7476H61.5695V52.3414H59.6306V49.7476ZM65.5244 49.7476H67.9926V51.8902H68.8699C70.9434 51.8902 71.8207 52.682 71.8207 54.4548C71.8207 56.4344 71.0428 57.0894 69.0191 57.0894H65.5244V49.7476ZM68.7968 55.2467C69.3028 55.2467 69.6245 55.0836 69.6245 54.4548C69.6245 53.8959 69.3028 53.7329 68.8085 53.7329H67.9926V55.2467H68.7968ZM72.6512 49.7476H75.1194V57.0894H72.6512V49.7476ZM78.8858 49.7475H76.6019V57.0892H78.8858L81.1727 53.0894V57.0892H83.4567V49.7475H81.1727L78.8858 53.823V49.7475ZM79.1022 47.1944H77.64C77.7131 48.2046 78.5056 48.9003 80.0234 48.9003C81.5412 48.9003 82.3191 48.2046 82.4185 47.1944H80.9563C80.9066 47.5205 80.5849 47.6864 80.0293 47.6864C79.4736 47.6864 79.1636 47.5205 79.1022 47.1944Z" fill="#000000"/>
</g>
<defs>
<clipPath id="clip0">
<rect width="100" height="70" fill="#000000"/>
</clipPath>
</defs>
</svg>

<svg width="100" height="70" viewBox="0 0 100 70" fill="none" xmlns="http://www.w3.org/2000/svg"><g clip-path="url(#clip0)"><path fill-rule="evenodd" clip-rule="evenodd" d="M82.81 27.286h.015a17.154 17.154 0 0110.832 3.777 17.016 17.016 0 015.995 9.743 16.957 16.957 0 01-1.541 11.322 17.074 17.074 0 01-8.384 7.803 14.771 14.771 0 01-4.776.937c-.699 0-1.202-.105-1.31-.344-.16-.346.395-.68.898-.928 3.617-1.786 4.335-2.271 5.4-2.99.255-.172.529-.357.867-.576 3.717-2.347 6.284-7.092 6.284-11.706a14.147 14.147 0 00-4.2-10.006 14.278 14.278 0 00-10.077-4.124c-.745 0-1.489.058-2.225.172a1.469 1.469 0 01-1.559-.842 1.45 1.45 0 01-.129-.614v-.172a13.974 13.974 0 00-1.897-6.944 14.054 14.054 0 00-5.107-5.093 14.136 14.136 0 00-13.975-.108 1.468 1.468 0 01-1.796-.283 1.453 1.453 0 01-.321-.561 18.242 18.242 0 00-6.609-9.265A18.38 18.38 0 0038.36 2.911c-10.033 0-18.221 8.099-18.221 18.049.002.7.045 1.4.128 2.096a1.448 1.448 0 01-.79 1.467c-.178.09-.371.142-.57.154a17.076 17.076 0 00-11.343 5.298 16.924 16.924 0 00-4.638 11.587 16.552 16.552 0 001.848 7.685c.991 1.796 2.96 4.495 6.69 7.115a39.989 39.989 0 005.85 3.242c.783.359 1.082.641.962.912-.299.678-3.808.22-5.785-.582a19.761 19.761 0 01-9.092-7.269A19.624 19.624 0 010 41.562a19.839 19.839 0 014.94-13.017 20.009 20.009 0 0112.3-6.61c-.027-.329-.027-.655-.027-.975C17.213 9.403 26.7 0 38.36 0a21.206 21.206 0 0111.896 3.63 21.059 21.059 0 017.783 9.662 17.237 17.237 0 016.79-1.403c8.791 0 16.201 6.765 16.938 15.429.348-.032.7-.032 1.044-.032zm-62.103 41.04v-2.244h.538l1.71 2.244h1.317l-2.097-2.646 1.95-2.492H22.81l-1.462 1.997h-.64v-1.997h-1.152v5.138h1.152zm6.22.125c-1.257 0-2.543-.832-2.543-2.684 0-1.851 1.286-2.695 2.544-2.695 1.257 0 2.544.84 2.544 2.695s-1.287 2.684-2.544 2.684zm1.364-2.684c0-1.184-.644-1.767-1.363-1.767-.72 0-1.363.582-1.363 1.767s.643 1.747 1.363 1.747 1.363-.559 1.363-1.747zm3.327.373h2.305v2.186h1.14v-5.138h-1.14v2.052h-2.305v-2.052h-1.143v5.138h1.143V66.14zm9.033 3.4v-1.214h-3.773v1.214h-1.035v-2.102h.292c.585 0 .878-.745.96-2.62l.075-1.633h3.764v4.25h.77v2.102l-1.053.003zm-2.486-5.455l-.047.873c-.079 1.357-.27 2.09-.673 2.483h2.34v-3.356h-1.62zm7.981.678v3.563h1.143v-5.138h-1.143l-2.456 3.58v-3.58h-1.144v5.138h1.144l2.456-3.563zm7.596 4.777h-1.038v-1.214h-4.127v-5.138h1.138v4.241h2.111v-4.241h1.144v4.241h.769l.003 2.11zm4.454-4.777v3.563h1.143v-5.138h-1.143l-2.457 3.58v-3.58h-1.143v5.138h1.143l2.457-3.563zm4.588 3.688c-1.258 0-2.545-.832-2.545-2.684 0-1.851 1.287-2.695 2.545-2.695 1.257 0 2.544.84 2.544 2.695s-1.284 2.684-2.544 2.684zm1.362-2.684c0-1.184-.643-1.767-1.362-1.767-.72 0-1.363.582-1.363 1.767s.643 1.747 1.363 1.747c.719 0 1.362-.559 1.362-1.747zm3.315.373h2.301v2.186h1.144v-5.138h-1.144v2.052h-2.301v-2.052h-1.144v5.138h1.144V66.14zm6.996 1.365c.585 0 1.065-.239 1.266-.716h1.123a2.33 2.33 0 01-.883 1.231 2.346 2.346 0 01-1.456.431c-1.661 0-2.612-1.26-2.612-2.733 0-1.546 1.068-2.646 2.536-2.646 1.582 0 2.57 1.28 2.477 3.01h-3.852c.076.955.749 1.423 1.401 1.423zm1.287-2.253a1.29 1.29 0 00-.814-1.198 1.308 1.308 0 00-.502-.095 1.346 1.346 0 00-.953.366 1.334 1.334 0 00-.419.927h2.688zm3.912-1.987c-.27.14-.498.352-.659.61v-.687h-1.14V70h1.14v-2.352a1.708 1.708 0 001.539.803c1.257 0 2.216-1.053 2.216-2.695s-.959-2.684-2.216-2.684a1.717 1.717 0 00-.88.193zm.628.744c.798 0 1.278.67 1.278 1.747 0 1.091-.48 1.781-1.278 1.77-.749 0-1.334-.606-1.334-1.77 0-1.165.585-1.747 1.334-1.747zm-59.21-14.48c1.973 0 3.655 1.296 3.655 3.875 0 2.58-1.682 3.863-3.656 3.863-1.974 0-3.658-1.284-3.658-3.863 0-2.58 1.681-3.875 3.658-3.875zm0 5.706c.628 0 1.11-.466 1.11-1.831s-.482-1.843-1.11-1.843c-.63 0-1.112.478-1.112 1.843s.48 1.831 1.111 1.831zm4.261-2.835v.227c0 3.266 1.57 4.64 3.44 4.628 1.74 0 3.567-1.199 3.567-3.604 0-2.232-1.456-3.397-3.073-3.397-.828 0-1.755.27-2.176 1.106.087-1.38.865-1.75 1.842-1.871l2.655-.292v-2.241l-2.16.204c-3.217.314-4.022 2.553-4.095 5.24zm3.419-.306c.555 0 1.076.355 1.076 1.569 0 1.147-.53 1.572-1.05 1.572s-1.012-.492-1.012-1.572c0-1.2.43-1.569.986-1.569zm3.999 3.004h.222c.456 0 .9-.466 1.012-2.893l.126-2.457h5.95v7.341h-2.467v-5.35h-1.211l-.111 1.72c-.138 2.076-.916 3.63-3.053 3.63h-.468V55.1zm11.44-3.797c.132-.04.27-.054.406-.04.532 0 .988.163.991.984v.204c-2.796.192-4.386.914-4.386 2.62 0 1.31 1.073 2.198 2.371 2.198.94 0 1.764-.326 2.258-1.133v.955h2.299a25.493 25.493 0 01-.123-2.949v-1.406c.023-2.457-1.334-3.248-3.238-3.248-2.196 0-3.31 1.324-3.421 2.719h2.126a1.012 1.012 0 01.718-.904zm.295 4.123c-.575 0-.813-.35-.816-.663.006-.634.698-.88 2.003-.976v.219c0 1.13-.544 1.42-1.187 1.42zm8.736-.75a7.15 7.15 0 01-1.655.191c-1.483 0-2.384-.765-2.384-2.401v-2.716h2.471v2.29c0 .833.258.97.962.97a2.14 2.14 0 00.606-.082v-3.178h2.47v7.341h-2.47v-2.416zm6.407-4.926H57.16l.002 7.341h2.472v-2.756h1.938v2.756h2.472v-7.341H61.57v2.593h-1.94v-2.593zm5.893 0h2.469v2.142h.877c2.073 0 2.95.792 2.95 2.565 0 1.98-.777 2.634-2.8 2.634h-3.496v-7.341zm3.273 5.499c.506 0 .828-.163.828-.792 0-.56-.322-.722-.817-.722h-.815v1.514h.804zm3.854-5.5h2.468v7.342h-2.468v-7.341zm6.235 0h-2.284v7.342h2.284l2.287-4v4h2.284v-7.341h-2.284l-2.287 4.075v-4.075zm.216-2.553H77.64c.073 1.01.866 1.706 2.383 1.706 1.518 0 2.296-.695 2.395-1.706h-1.462c-.05.326-.371.492-.927.492-.555 0-.865-.166-.927-.492z" fill="#000"/></g><defs><clipPath id="clip0"><path fill="#000" d="M0 0h100v70H0z"/></clipPath></defs></svg>
